X: 38613
T: Stoney Steps, The
R: reel
M: 4/4
K: Dmajor
~A3B AF~f2|ABdf edBA|FA~A2 BF~F2|EFGE FDD2|
~A3B AF~f2|a2df fdBA|FA~A2 BF~f2|efge fddf||
fedc defa|~a2ba afeg|fded fded|B/c/dAG FDDf|
fedc defa|afbf afeg|~f4 ~e4|dfaf edBF||

